X: 15
T: The Mason's Apron
R: reel
M: 4/4
L: 1/8
K: Gmaj
f | gGGG BAGE | DEGA BGAB | cAAG ABAG | FGAB cdef|
gGGG BAGE | DEGA BGAB | cBcd edeg | dcBA G3f |
gGGG BAGE | DEGA BGAB | cAAG ABAG | FGAB cdef |
gedB GAGE | DEGA BGAB | cBcd edeg | dcBA G3A |
BGdG eGdG | BGdG eGdB | BAeABAEA | BAef gedc |
BGGG eGdG | BGdG eGdB | ABcdefge | dcBA G z2 |
BGdG eGdG | BGdG eGdB | BAeABAEA | BAef gedc |
G2G2 eGdG | BGdG eGdB | ABcdefge | dcBA GGGA |
B2 dB eBdB | B2 dB eBdB | c2 dc ecdc | c2 dc ecfA |
B2 dB eBdB | gBfB eBdB | c2 cd edeg | dcBA G2 GA |
B2 gB fBeB | B2 gB eBdB | c2 dc ecdc | c2 dc ecfA |
B2 gB fBeB | gBfB eBdB | c2 cd edeg | dcBA G2 GA |
B2 GB FBEB | GBFB EBDB | c2 Ac GcFc | DcEc FcDA |
B2 GF GBEG | BEGB DGBc- | c2 cd edeg | dcBA GGBd |
gd d2 edef | g2 fg edeg | aeee fefg | a2 ga edBd |
gd d2 edef | g2 fg edef | gfge dBGB | AGAB GGBd |
gd d2 edef | g2 fg edeg | aeee fefg | a2 ga edBd |
gd d2 edef | g2 fg e2-ef| g2 ge d2 GB | AGAB G2 GA |
B2 GB dGBd | GBdG BdGB | c2 Gc eGce |GceG ceGA |
B2 GB dGBd | g2 fgegdB | cBcd edeg | dcBA G2 GA |
BdGB dGBd | GBdG BdGB | c2 Gc eGce |GceG ceGA |
B2 GB dGBd | FBdF BdFB | cBcd edeg | dcBA G2 ^g2 |
aAAA cBAF | EFAB cABc | dBBB dcBA | GABc zefg |
agaf edcB | AGAB cAEA | dcde fefa | edcB A2 z2 |
aAAA cBAF | EFAB cABc | dBBB dcBA | GABc defg |
aAAA cBAF | EFAB cBAc | Bcde fefa | ecdB A2 z2 ||


Tune 74	Setting 12547

